X: 23
T: Jatkan Lauantai
O: Finland
F: http://www.youtube.com/watch?v=BKUoX_yi9Pw
M: 2/4
L: 1/8
Q: 1/4=160
K: G clef=treble
%%MIDI gchord fc
%%MIDI program 110
%%MIDI bassprog 45
%%MIDI chordprog 45
%%MIDI bassvol 35
%%MIDI chordvol 34
"C"E2 EE|E4       |"D"D2 DD   |D4         |\
D,D, D,2|"G"C2 B,2|"Am"A,2 A,2|"G"G,G, G,2|z4|
"G"D2 DE|DCB,A,   |G,2B,D     |G2B2       |\
"D"A2 AB|c2 A2    |"G"GFGE    |D2 EE      |
"C"EFG2 |E2 DD    |"G"GA B2   |B2A2       |\
"D"D2D2 |B2A2     |"G"GG G2   |z4         |
"C"BGDG |B2AB     |"C"cAEA    |c2z2       |\
"D"DDDD |D2DE     |"G"GFGA    |B4         |
"C"e2 ee|e4       |"D"d2 dd   |d4         |\
DD D2   |c2 B2    |A2 A2      |"G"GG G2   |z4|



